src/Pure/16/symbolic/actions/object-move-symbolic.svg

<?xml version="1.0" encoding="UTF-8" standalone="no"?>
<svg
   width="16"
   height="16"
   version="1.1"
   id="svg1"
   sodipodi:docname="object-move-symbolic.svg"
   inkscape:version="1.4.2 (ebf0e940d0, 2025-05-08)"
   xmlns:inkscape="http://www.inkscape.org/namespaces/inkscape"
   xmlns:sodipodi="http://sodipodi.sourceforge.net/DTD/sodipodi-0.dtd"
   xmlns="http://www.w3.org/2000/svg"
   xmlns:svg="http://www.w3.org/2000/svg">
  <defs
     id="defs1">
     <style
        id="current-color-scheme"
        type="text/css">
        .ColorScheme-Text { color:#363636; }
     </style>
  </defs>
  <sodipodi:namedview
     id="namedview1"
     pagecolor="#ffffff"
     bordercolor="#000000"
     borderopacity="0.25"
     inkscape:showpageshadow="2"
     inkscape:pageopacity="0.0"
     inkscape:pagecheckerboard="0"
     inkscape:deskcolor="#d1d1d1"
     inkscape:zoom="49.6875"
     inkscape:cx="8"
     inkscape:cy="8"
     inkscape:window-width="1920"
     inkscape:window-height="1010"
     inkscape:window-x="0"
     inkscape:window-y="0"
     inkscape:window-maximized="1"
     inkscape:current-layer="svg1" />
  <path
     id="path1"
     style="fill:currentColor"
     class="ColorScheme-Text"
     d="M 8 0.34179688 C 7.4887588 0.34179688 6.9776375 0.5379525 6.5859375 0.9296875 L 5.171875 2.34375 L 5.8789062 3.0507812 L 7.2929688 1.6367188 C 7.6847088 1.2449788 8.3153312 1.2449788 8.7070312 1.6367188 L 10.121094 3.0507812 L 10.828125 2.34375 L 9.4140625 0.9296875 C 9.0223275 0.5379525 8.5112412 0.34179688 8 0.34179688 z M 2.34375 5.171875 L 0.92773438 6.5859375 C 0.14426438 7.3694075 0.14426438 8.6306625 0.92773438 9.4140625 L 2.34375 10.828125 L 3.0507812 10.121094 L 1.6347656 8.7070312 C 1.2430256 8.3152912 1.2430256 7.6846687 1.6347656 7.2929688 L 3.0507812 5.8789062 L 2.34375 5.171875 z M 13.65625 5.171875 L 12.949219 5.8789062 L 14.363281 7.2929688 C 14.755021 7.6847087 14.755021 8.3153312 14.363281 8.7070312 L 12.949219 10.121094 L 13.65625 10.828125 L 15.070312 9.4140625 C 15.853782 8.6305925 15.853783 7.3693375 15.070312 6.5859375 L 13.65625 5.171875 z M 5.8789062 12.949219 L 5.171875 13.65625 L 6.5859375 15.070312 C 7.3694075 15.853782 8.6306625 15.853782 9.4140625 15.070312 L 10.828125 13.65625 L 10.121094 12.949219 L 8.7070312 14.363281 C 8.3152912 14.755021 7.6846687 14.755021 7.2929688 14.363281 L 5.8789062 12.949219 z " />
</svg>

<svg width="16" height="16" version="1.1" xmlns="http://www.w3.org/2000/svg">
 <path d="m9.4142 0.92893c-0.78347-0.78347-2.045-0.78347-2.8284 0l-1.4142 1.4142 0.70711 0.70711 1.4142-1.4142c0.39174-0.39174 1.0225-0.39174 1.4142 0l1.4142 1.4142 0.70711-0.70711zm4.2426 4.2426-0.70711 0.70711 1.4142 1.4142c0.39174 0.39174 0.39174 1.0225 0 1.4142l-1.4142 1.4142 0.70711 0.70711 1.4142-1.4142c0.78347-0.78347 0.78347-2.045 0-2.8284zm-11.314 0-1.4142 1.4142c-0.78347 0.78347-0.78347 2.045 0 2.8284l1.4142 1.4142 0.70711-0.70711-1.4142-1.4142c-0.39174-0.39174-0.39174-1.0225 0-1.4142l1.4142-1.4142zm7.7782 7.7782-1.4142 1.4142c-0.39174 0.39174-1.0225 0.39174-1.4142 0l-1.4142-1.4142-0.70711 0.70711 1.4142 1.4142c0.78347 0.78347 2.045 0.78347 2.8284 0l1.4142-1.4142z" fill="#363636"/>
</svg>
